fileicons/icons/android.svg

<svg xmlns="http://www.w3.org/2000/svg" width="24" height="24" viewBox="0 0 24 24"><path d="M15 5h-1V4h1m-5 1H9V4h1m5.53-1.84L16.84.85c.19-.19.19-.51 0-.71a.513.513 0 0 0-.71 0l-1.48 1.48C13.85 1.23 12.95 1 12 1c-.96 0-1.86.23-2.66.63L7.85.14a.501.501 0 0 0-.7 0c-.2.2-.2.52 0 .71l1.31 1.31C6.97 3.26 6 5 6 7h12c0-2-1-3.75-2.47-4.84M20.5 8A1.5 1.5 0 0 0 19 9.5v7a1.5 1.5 0 0 0 1.5 1.5 1.5 1.5 0 0 0 1.5-1.5v-7A1.5 1.5 0 0 0 20.5 8m-17 0A1.5 1.5 0 0 0 2 9.5v7A1.5 1.5 0 0 0 3.5 18 1.5 1.5 0 0 0 5 16.5v-7A1.5 1.5 0 0 0 3.5 8M6 18a1 1 0 0 0 1 1h1v3.5A1.5 1.5 0 0 0 9.5 24a1.5 1.5 0 0 0 1.5-1.5V19h2v3.5a1.5 1.5 0 0 0 1.5 1.5 1.5 1.5 0 0 0 1.5-1.5V19h1a1 1 0 0 0 1-1V8H6v10z" fill="#c0ca33"/></svg>

<?xml version="1.0" encoding="UTF-8" standalone="no"?>
<svg
   xmlns:dc="http://purl.org/dc/elements/1.1/"
   xmlns:cc="http://creativecommons.org/ns#"
   xmlns:rdf="http://www.w3.org/1999/02/22-rdf-syntax-ns#"
   xmlns:svg="http://www.w3.org/2000/svg"
   xmlns="http://www.w3.org/2000/svg"
   xmlns:sodipodi="http://sodipodi.sourceforge.net/DTD/sodipodi-0.dtd"
   xmlns:inkscape="http://www.inkscape.org/namespaces/inkscape"
   version="1.1"
   width="24"
   height="24"
   viewBox="0 0 24 24"
   id="svg2"
   inkscape:version="0.91 r13725"
   sodipodi:docname="android.svg">
  <metadata
     id="metadata10">
    <rdf:RDF>
      <cc:Work
         rdf:about="">
        <dc:format>image/svg+xml</dc:format>
        <dc:type
           rdf:resource="http://purl.org/dc/dcmitype/StillImage" />
      </cc:Work>
    </rdf:RDF>
  </metadata>
  <defs
     id="defs8" />
  <sodipodi:namedview
     pagecolor="#ffffff"
     bordercolor="#666666"
     borderopacity="1"
     objecttolerance="10"
     gridtolerance="10"
     guidetolerance="10"
     inkscape:pageopacity="0"
     inkscape:pageshadow="2"
     inkscape:window-width="733"
     inkscape:window-height="479"
     id="namedview6"
     showgrid="false"
     inkscape:zoom="9.8333333"
     inkscape:cx="12"
     inkscape:cy="12"
     inkscape:window-x="104"
     inkscape:window-y="26"
     inkscape:window-maximized="0"
     inkscape:current-layer="svg2" />
  <path
     d="M15,5H14V4H15M10,5H9V4H10M15.53,2.16L16.84,0.85C17.03,0.66 17.03,0.34 16.84,0.14C16.64,-0.05 16.32,-0.05 16.13,0.14L14.65,1.62C13.85,1.23 12.95,1 12,1C11.04,1 10.14,1.23 9.34,1.63L7.85,0.14C7.66,-0.05 7.34,-0.05 7.15,0.14C6.95,0.34 6.95,0.66 7.15,0.85L8.46,2.16C6.97,3.26 6,5 6,7H18C18,5 17,3.25 15.53,2.16M20.5,8A1.5,1.5 0 0,0 19,9.5V16.5A1.5,1.5 0 0,0 20.5,18A1.5,1.5 0 0,0 22,16.5V9.5A1.5,1.5 0 0,0 20.5,8M3.5,8A1.5,1.5 0 0,0 2,9.5V16.5A1.5,1.5 0 0,0 3.5,18A1.5,1.5 0 0,0 5,16.5V9.5A1.5,1.5 0 0,0 3.5,8M6,18A1,1 0 0,0 7,19H8V22.5A1.5,1.5 0 0,0 9.5,24A1.5,1.5 0 0,0 11,22.5V19H13V22.5A1.5,1.5 0 0,0 14.5,24A1.5,1.5 0 0,0 16,22.5V19H17A1,1 0 0,0 18,18V8H6V18Z"
     id="path4"
     style="fill:#c0ca33;fill-opacity:1" />
</svg>
